X:5
T:The Dashing White Eejit
R:reel
C:Allan Henderson (MCPS)
O:contempoary Scotland
D:Lisa MacArthur
Z:Paul Stewart Cranford (P.S.C.), <http://www.cranfordpub.com>
L:1/8
M:C|
Q:333
K:E
f|eB B/B/B ecce|Bcef gffg|eBeg fagb|aBgB fgec|
eB B/B/B ecce|Bcef gffb|aBgB fgec|Bcbg fee:|
|:B|cffe f2 fa|gbfa efce|Beef e3 g|bgfe fgeB|
cffe f2 fa|gbfa efce|Beef e3 g|bgfa gee:|
